X: 1
T: The High Reel
O: Trad
Z: 2005 John Chambers <jc:trillian.mit.edu>
M: C|
L: 1/8
K: Amix=g
|: "A"a2fa ecA2 | cAeA fAeA | a2fa ecA2 | "G"Bcdc BGGB |  "A"a2fa ecA2 |
| cdef "(G)"g2fg | afge fdec | "G"Bcdc BGGB :: "A"(3cBA eA fAeA | (3cBA af ecA2 |
| (3cBA eA fAeA | "G"Bcdc BGGB |  "A"(3cBA eA fAeA |cdef "(G)"g2fg | afge fdec | "G"Bcdc BGG2 :|
